X:1
T:Capt Charles Gordon, R.N., Huntly
T:Capt Charles Gordon, R.N., Huntly
T:William Marshall
C:William Marshall
%%score { ( 1 2 ) 3 }
L:1/8
M:4/4
K:A
V:1 treble 
V:2 treble 
V:3 bass 
V:1
 E | A<A A>A G>B G>E | [CA]<[CA] [CA]>[CA] (c>e) (c>A) | (3def (3edc B2 (GE) | %4
 (F/G/A/).F/ (G/A/B/).G/ [CA]2 [CA]2 |] (3cea (3edc B2 (GE) | (3cea (3ecG (3Afe{d} (3c3/2B/A | %7
 (3d3/2e/f (3edc B2 (GE) | (F/G/A/).F/ (G/A/B/).G/ A2 A2 | (3cea (3edc B2 (G>E) | %10
 (3cea (3ecG (3Afe{d} (3c3/2B/A | (3d3/2e/f (3eac"^tr" B2 (GE) | (F/G/A/).F/ (G/A/B/).G/ A2 A2 |] %13
V:2
 x | C<C C>C D2 D2 | x8 | A2 B>A x4 | x8 |] x8 | x8 | x2 B2 x4 | x8 | x8 | x8 | x8 | D2 D2 C2 C2 |] %13
V:3
 z | [A,,A,]2 [A,,A,]2 [E,,E,]2 [E,,E,]2 | [A,,A,]2 [A,,A,]2 [A,,A,]2 [=G,,=G,]2 | %3
 [F,,F,]2 [^G,,^G,]>[A,,A,] [E,,E,]2 [E,,E,]2 | [D,D]2 [E,B,D]2 [A,,A,]2 [A,,A,]2 |] %5
 [A,CE]2 [A,CE]2 [E,B,D]2 [E,B,D]2 | [A,CE]2 [A,CE]2 [A,CE]2 [=G,A,E]2 | %7
 [F,D]2 [G,E]>[A,E] [E,B,D]2 [E,B,D]2 | [D,D]2 [E,B,D]2 [A,CE]2 [A,CE]2 | %9
 [A,CE]2 [A,CE]2 [E,B,D]2 [E,B,D]2 | [A,CE]2 [A,CE]2 [A,CE]>[A,CE] [A,E=G]>[A,EG] | %11
 [A,FA]>[A,D] [A,CE]2 [E,B,D]2 [E,B,D]2 | [D,,D,]2 [E,,E,]2 [A,,,A,,]2 [A,,,A,,]2 |] %13

